icons/24x24_projects_outline.svg

<svg width="24" height="24" fill="none" xmlns="http://www.w3.org/2000/svg"><path d="M4 7v2h12V7H4Zm2 12v-8H2V5h16v4h4v10H6Zm2-6h12v-2H8v2Zm0 4h12v-2H8v2Z" fill="#000"/></svg>

<svg xmlns="http://www.w3.org/2000/svg" width="24" height="24" viewBox="0 0 24 24">
  <path d="M4,7 L4,9 L16,9 L16,7 L4,7 Z M6,19 L6,11 L2,11 L2,5 L18,5 L18,9 L22,9 L22,19 L6,19 Z M8,13 L20,13 L20,11 L8,11 L8,13 Z M8,17 L20,17 L20,15 L8,15 L8,17 Z"/>
</svg>
